X: 20464
T: John Joe McElroy's Fling
R: strathspey
M: 4/4
K: Dmajor
(3dcB|A<DF>B A>DF>B|A<DF>A d>c (3dcB|A<DF>B A>DF>D|(3[A,E][A,E][A,E] [CF]>[EA] (3GGF G>B|
A<DF>B A<DF>B|A>DF>A d>cd>e|(3fff e>f d>d (3cBA|d>BA>F (3EEE||
F>A|(3ddd c>d B>AF>A|(3ddd c>d B>AA>c|
(3ddd c>d B>dA>F|E>FG>A B>B (3ABc|
d>fc>d B>AF>A|(3ddd c>d B>AA>c|
c>ee>c (3BBA F>D|E>FG>A B>d||

